X:1
T:title
M:4/4
Q:120
L:1/8
R:Reel
K:C
 ^a2 _G4 _A ^d' | ce' ^g'3 ^g3 |  ^C ^D2c'2 ^B ^a _A |  _d2 ^B4 _c' ^a' | c' ^A2E _d'4 |  ^b2 _c'4 _e _c' |  _a4 ^f' _E _fa' |  ^G2g'2 _e' ^A3 | 